svg/fluentui-system-icons/ic_fluent_table_move_below_28_filled.svg

<svg width="28" height="28" viewBox="0 0 28 28" fill="none" xmlns="http://www.w3.org/2000/svg">
<path d="M3.75 23.5C3.33579 23.5 3 23.8358 3 24.25C3 24.6642 3.33579 25 3.75 25H24.25C24.6642 25 25 24.6642 25 24.25C25 23.8358 24.6642 23.5 24.25 23.5H3.75ZM25 11V16C25 16.5523 24.5523 17 24 17H18.5L18.5 11H25ZM25 6.75V9.5H18.5V3L21.25 3C23.3211 3 25 4.67893 25 6.75ZM11 3L17 3V9.5L11 9.5L11 3ZM6.75 3L9.5 3L9.5 9.5L3 9.5L3 6.75C3 4.67893 4.67893 3 6.75 3ZM4 17C3.44772 17 3 16.5523 3 16L3 11H9.5L9.5 17H4ZM17 11H11L11 17H12.25V16C12.25 15.0335 13.0335 14.25 14 14.25C14.9665 14.25 15.75 15.0335 15.75 16L15.75 17H17L17 11ZM12.2483 18.6894L13.25 19.5799L13.25 16C13.25 15.5858 13.5858 15.25 14 15.25C14.4142 15.25 14.75 15.5858 14.75 16V19.5799L15.7517 18.6894C16.0613 18.4143 16.5354 18.4421 16.8106 18.7517C17.0858 19.0613 17.0579 19.5354 16.7483 19.8106L14.4983 21.8106C14.2141 22.0631 13.7859 22.0631 13.5017 21.8106L11.2517 19.8106C10.9421 19.5354 10.9143 19.0613 11.1895 18.7517C11.4646 18.4421 11.9387 18.4143 12.2483 18.6894Z" fill="#212121"/>
</svg>

<svg xmlns="http://www.w3.org/2000/svg" width="28" height="28"><path d="M3.75 23.5a.75.75 0 0 0 0 1.5h20.5a.75.75 0 0 0 0-1.5H3.75ZM25 11v5a1 1 0 0 1-1 1h-5.5v-6H25Zm0-4.25V9.5h-6.5V3h2.75A3.75 3.75 0 0 1 25 6.75ZM11 3h6v6.5h-6V3ZM6.75 3H9.5v6.5H3V6.75A3.75 3.75 0 0 1 6.75 3ZM4 17a1 1 0 0 1-1-1v-5h6.5v6H4Zm13-6h-6v6h1.25v-1a1.75 1.75 0 1 1 3.5 0v1H17v-6Zm-4.752 7.69 1.002.89V16a.75.75 0 0 1 1.5 0v3.58l1.002-.89a.75.75 0 0 1 .996 1.12l-2.25 2a.75.75 0 0 1-.996 0l-2.25-2a.75.75 0 0 1 .996-1.12Z"/></svg>
